themes/vice/icons/48x48/notification-microphone-sensitivity-medium.svg

<svg xmlns="http://www.w3.org/2000/svg" width="48" height="48" version="1">
    <rect style="opacity:.2" width="24" height="20" x="-29" y="-34" rx="10" ry="10" transform="matrix(0 -1 -1 0 0 0)"/>
    <path style="opacity:.2" d="M11 18a2 2 0 0 0-2 2v2.5c0 6.358 5.645 11.565 13 12.377V41h-8a2 2 0 0 0-2 2 2 2 0 0 0 2 2h20a2 2 0 0 0 2-2 2 2 0 0 0-2-2h-8v-6.123c7.355-.812 13-6.019 13-12.377V20a2 2 0 0 0-2-2 2 2 0 0 0-2 2v1.834C35 26.912 30.094 31 24 31s-11-4.088-11-9.166V20a2 2 0 0 0-2-2z"/>
    <path style="fill:#c4c4c4" d="M11 17a2 2 0 0 0-2 2v2.5c0 6.358 5.645 11.565 13 12.377V40h-8a2 2 0 0 0-2 2 2 2 0 0 0 2 2h20a2 2 0 0 0 2-2 2 2 0 0 0-2-2h-8v-6.123c7.355-.812 13-6.019 13-12.377V19a2 2 0 0 0-2-2 2 2 0 0 0-2 2v1.834C35 25.912 30.094 30 24 30s-11-4.088-11-9.166V19a2 2 0 0 0-2-2z"/>
    <path style="fill:#5d5d5d" d="M24 4c-5.54 0-10 4.46-10 10v2h20v-2c0-5.54-4.46-10-10-10z"/>
    <path style="fill:#fff;opacity:.1" d="M11 17a2 2 0 0 0-2 2v1a2 2 0 0 1 2-2 2 2 0 0 1 2 2v-1a2 2 0 0 0-2-2zm26 0a2 2 0 0 0-2 2v1a2 2 0 0 1 2-2 2 2 0 0 1 2 2v-1a2 2 0 0 0-2-2zm-24 3.834v1C13 26.912 17.906 31 24 31s11-4.088 11-9.166v-1C35 25.912 30.094 30 24 30s-11-4.088-11-9.166zM14 40a2 2 0 0 0-2 2 2 2 0 0 0 .064.496A2 2 0 0 1 14 41h8v-1h-8zm12 0v1h8a2 2 0 0 1 1.936 1.504A2 2 0 0 0 36 42a2 2 0 0 0-2-2h-8zM24 4c-5.54 0-10 4.46-10 10v1c0-5.54 4.46-10 10-10s10 4.46 10 10v-1c0-5.54-4.46-10-10-10z"/>
    <path style="fill:#c4c4c4" transform="matrix(0 -1 -1 0 0 0)" d="M-18-34h2v20h-2c-5.54 0-10-4.46-10-10s4.46-10 10-10z"/>
</svg>

<svg xmlns="http://www.w3.org/2000/svg" width="48" height="48" version="1">
 <rect style="opacity:0.2" width="24" height="20" x="-29" y="-34" rx="10" ry="10" transform="matrix(0,-1,-1,0,0,0)"/>
 <path style="opacity:0.2" d="m 11,18 a 2,2 0 0 0 -2,2 l 0,2.5 c 0,6.358104 5.644991,11.564906 13,12.376953 L 22,41 14,41 a 2,2 0 0 0 -2,2 2,2 0 0 0 2,2 l 20,0 a 2,2 0 0 0 2,-2 2,2 0 0 0 -2,-2 l -8,0 0,-6.123047 C 33.355009,34.064906 39,28.858104 39,22.5 L 39,20 a 2,2 0 0 0 -2,-2 2,2 0 0 0 -2,2 l 0,1.833984 C 35,26.911984 30.094,31 24,31 17.906,31 13,26.911984 13,21.833984 L 13,20 a 2,2 0 0 0 -2,-2 z"/>
 <path style="fill:#c4c4c4" d="M 11 17 A 2 2 0 0 0 9 19 L 9 21.5 C 9 27.858104 14.644991 33.064906 22 33.876953 L 22 40 L 14 40 A 2 2 0 0 0 12 42 A 2 2 0 0 0 14 44 L 34 44 A 2 2 0 0 0 36 42 A 2 2 0 0 0 34 40 L 26 40 L 26 33.876953 C 33.355009 33.064906 39 27.858104 39 21.5 L 39 19 A 2 2 0 0 0 37 17 A 2 2 0 0 0 35 19 L 35 20.833984 C 35 25.911984 30.094 30 24 30 C 17.906 30 13 25.911984 13 20.833984 L 13 19 A 2 2 0 0 0 11 17 z"/>
 <path style="fill:#5d5d5d" d="M 24 4 C 18.46 4 14 8.46 14 14 L 14 16 L 34 16 L 34 14 C 34 8.46 29.54 4 24 4 z"/>
 <path style="fill:#ffffff;opacity:0.1" d="M 11 17 A 2 2 0 0 0 9 19 L 9 20 A 2 2 0 0 1 11 18 A 2 2 0 0 1 13 20 L 13 19 A 2 2 0 0 0 11 17 z M 37 17 A 2 2 0 0 0 35 19 L 35 20 A 2 2 0 0 1 37 18 A 2 2 0 0 1 39 20 L 39 19 A 2 2 0 0 0 37 17 z M 13 20.833984 L 13 21.833984 C 13 26.911984 17.906 31 24 31 C 30.094 31 35 26.911984 35 21.833984 L 35 20.833984 C 35 25.911984 30.094 30 24 30 C 17.906 30 13 25.911984 13 20.833984 z M 14 40 A 2 2 0 0 0 12 42 A 2 2 0 0 0 12.064453 42.496094 A 2 2 0 0 1 14 41 L 22 41 L 22 40 L 14 40 z M 26 40 L 26 41 L 34 41 A 2 2 0 0 1 35.935547 42.503906 A 2 2 0 0 0 36 42 A 2 2 0 0 0 34 40 L 26 40 z"/>
 <path style="fill:#ffffff;opacity:0.1" d="M 24 4 C 18.46 4 14 8.46 14 14 L 14 15 C 14 9.46 18.46 5 24 5 C 29.54 5 34 9.46 34 15 L 34 14 C 34 8.46 29.54 4 24 4 z"/>
 <path style="fill:#c4c4c4" transform="matrix(0,-1,-1,0,0,0)" d="m -18,-34 2,0 0,20 -2,0 c -5.54,0 -10,-4.46 -10,-10 0,-5.54 4.46,-10 10,-10 z"/>
</svg>
